X:1
T:Title
%%score { ( 1 3 ) | 2 }
L:1/8
M:6/8
K:C
V:1 treble nm="Grand Piano"
V:3 treble 
V:2 bass 
V:1
 z3 z2[Q:1/4=81] [CE] | [EG][FA][EG] ECE | [EG][FA][EG] [Ec]2 [CE] | [EG][FA][EG] ECE | %4
 [B,D]3- [B,D]2 [CE] | [EG][FA][EG] ECE | [EG][FA][EG] [Ec]2 [EG] | [FA][GB][Ac] ecd | %8
[M:5/8] [Ec]-[Ec]- [Ec]3 |[M:1/8] [EG] |[M:3/4] [Ec][GB] [FA][EG] [CE][FA] | G2- [EG-] [EG]2 [EG] | %12
 [Ec][GB] [FA][EG] EG | D6 | [EG][FA] [EG]E CE | [EG][FA] [EG] [Ec]2 [EG] | [FA][GB] [Ac]e cd | %17
[M:5/8] [Ec]-[Ec]- [Ec]3 |] %18
V:2
 z3 z2 [C,G,] | [C,C][C,C][C,C] [C,G,C][C,E,][C,G,C] | [C,C][C,C][C,C] [C,G,]2 [C,G,] | %3
 [C,C][C,C][C,C] [C,G,C][C,G,][C,G,C] | [G,,G,]3- [G,,G,]2 [C,G,] | %5
 [C,C][C,C][C,C] [C,G,C][C,E,][C,G,C] | [C,C][C,C][C,C] [C,G,]2 [C,C] | %7
 [F,C][F,C][F,C][K:treble] [G,CG][G,CE][G,B,F] |[M:5/8][K:bass] [C,C]-[C,C]- [C,C]3 | %9
[M:1/8] [C,C] |[M:3/4] [C,G,][C,A,] [C,B,][C,C] [C,G,][C,C] | [C,C]2 [C,C] [C,C]2 [C,C] | %12
 [C,G,][C,A,] [C,B,][C,C] [C,G,C][E,G,C] | [G,B,]2 G, G,2 [C,G,C] | %14
 [C,C][C,C] [C,C][C,G,C] [C,E,][C,G,C] | [C,C][C,C] [C,C] [C,G,]2 [C,C] | %16
 [F,C][F,C] [F,C][K:treble][G,CG] [G,CE][G,B,F] |[M:5/8][K:bass] [C,C]-[C,C]- [C,C]3 |] %18
V:3
 x6 | x6 | x6 | x6 | x6 | x6 | x6 | x6 |[M:5/8] x5 |[M:1/8] x |[M:3/4] x6 | E2 z2 z2 | x6 | %13
 z2 B, B,2 E | x6 | x6 | x6 |[M:5/8] x5 |] %18

